X:1     
T:Betsy, the Serving Maid
B: Purslow, F, (1968), The Wanton Seed, EDFS, London
S:George Smith, Fareham, Hants, July 1906
Z:Gardiner H 460
F:http://www.folkinfo.org/songs
M:3/2     %Meter
L:1/8     %
K:D
D2 |E2 D2 E4 A4 |D2 C2 D4
w:The graz-ier's daugh-ter liv-ing near,
 (A2G2) |F2 G2 A4 d2 G2 | (GA) B2 A4
w: A_ fair young dam-sel as you_ shall hear;
 (A2G2) |(3(FA)G =c4 (d2G2) |F2 G2 (A3BdB) 
w:Then_ up_ to Lon-don_ she did go____ 
(AG) |F2 E2 F4 A2 A2 |D2 C2 D4 |]
w:To_ seek for serv-ice as you shall know 